src/shared/assets/dialog/dialog-page-style-settings/dialogPageStyleSettings-add.svg

<svg width="116" height="208" viewBox="0 0 116 208" fill="none" xmlns="http://www.w3.org/2000/svg">
<rect width="116" height="208" rx="16" fill="white"/>
<rect x="0.5" y="0.5" width="115" height="207" rx="15.5" stroke="black" stroke-opacity="0.06"/>
<path d="M58 92C59.6569 92 61 93.3431 61 95V101H67C68.6569 101 70 102.343 70 104C70 105.657 68.6569 107 67 107H61V113C61 114.657 59.6569 116 58 116C56.3431 116 55 114.657 55 113V107H49C47.3431 107 46 105.657 46 104C46 102.343 47.3431 101 49 101H55V95C55 93.3431 56.3431 92 58 92Z" fill="black" fill-opacity="0.2"/>
</svg>

<svg xmlns="http://www.w3.org/2000/svg" fill="none" viewBox="0 0 116 208"><rect width="116" height="208" fill="#fff" rx="16"/><rect width="115" height="207" x=".5" y=".5" stroke="#000" stroke-opacity=".06" rx="15.5"/><path fill="#000" fill-opacity=".2" d="M58 92a3 3 0 0 1 3 3v6h6a3 3 0 1 1 0 6h-6v6a3 3 0 1 1-6 0v-6h-6a3 3 0 1 1 0-6h6v-6a3 3 0 0 1 3-3"/></svg>
